vessel_track/img/weather-iico.svg

<svg width="32" height="32" viewBox="0 0 32 32" fill="none" xmlns="http://www.w3.org/2000/svg">
<path d="M11.9125 17.3587V16.6086L11.9056 16.6087L11.9125 17.3587ZM11.7795 17.3587L11.7863 16.6087H11.7795V17.3587ZM7.95314 16.213L8.4539 15.6547L8.40994 15.6152L8.36035 15.5832L7.95314 16.213ZM18.7992 8.38431L18.0729 8.57129L18.2178 9.13431H18.7992V8.38431ZM11.846 18.109C11.8704 18.109 11.8949 18.1089 11.9193 18.1086L11.9056 16.6087C11.8858 16.6089 11.8659 16.609 11.846 16.609V18.109ZM11.7727 18.1086C11.7971 18.1089 11.8216 18.109 11.846 18.109V16.609C11.8261 16.609 11.8062 16.6089 11.7863 16.6087L11.7727 18.1086ZM11.7795 16.6087H10.9481V18.1087H11.7795V16.6087ZM10.9481 16.6087C9.98904 16.6087 9.11593 16.2484 8.4539 15.6547L7.45238 16.7713C8.37892 17.6023 9.60525 18.1087 10.9481 18.1087V16.6087ZM3.9165 10.1795C3.9165 12.9749 5.36357 15.4318 7.54594 16.8428L8.36035 15.5832C6.58733 14.4368 5.4165 12.4447 5.4165 10.1795H3.9165ZM11.846 2.25C7.46666 2.25 3.9165 5.80015 3.9165 10.1795H5.4165C5.4165 6.62858 8.29508 3.75 11.846 3.75V2.25ZM19.5255 8.19734C18.6452 4.77763 15.5417 2.25 11.846 2.25V3.75C14.8407 3.75 17.359 5.79818 18.0729 8.57129L19.5255 8.19734ZM18.7992 9.13431H21.7173V7.63431H18.7992V9.13431ZM21.7173 9.13431C23.7813 9.13431 25.4545 10.8075 25.4545 12.8715H26.9545C26.9545 9.97908 24.6097 7.63431 21.7173 7.63431V9.13431ZM25.4545 12.8715C25.4545 14.9355 23.7813 16.6087 21.7173 16.6087V18.1087C24.6097 18.1087 26.9545 15.7639 26.9545 12.8715H25.4545ZM21.7173 16.6087H11.9125V18.1087H21.7173V16.6087Z" fill="white"/>
<path d="M6 20.5H12.6667" stroke="white" stroke-width="1.5" stroke-linecap="round"/>
<path d="M8.6665 23H24.0443C25.1243 23 25.9998 23.8954 25.9998 25C25.9998 26.1046 25.1243 27 24.0443 27C22.9643 27 22.0887 26.1046 22.0887 25" stroke="white" stroke-width="1.5" stroke-linecap="round"/>
<path d="M6 25.5H18.0444C19.1245 25.5 20 26.3954 20 27.5C20 28.6046 19.1245 29.5 18.0444 29.5C16.9644 29.5 16.0889 28.6046 16.0889 27.5" stroke="white" stroke-width="1.5" stroke-linecap="round"/>
</svg>

<svg width="32" height="32" fill="none" xmlns="http://www.w3.org/2000/svg"><path d="M11.912 17.359v-.75h-.006l.006.75zm-.133 0l.007-.75h-.006v.75zm-3.826-1.146l.5-.558-.043-.04-.05-.032-.407.63zM18.8 8.384l-.726.187.145.563h.581v-.75zm-6.953 9.725h.073l-.013-1.5h-.06v1.5zm-.073 0h.073v-1.5h-.06l-.013 1.5zm.007-1.5h-.832v1.5h.832v-1.5zm-.832 0a3.72 3.72 0 01-2.494-.954L7.452 16.77a5.22 5.22 0 003.496 1.338v-1.5zm-7.032-6.43a7.924 7.924 0 003.63 6.664l.814-1.26a6.424 6.424 0 01-2.943-5.403h-1.5zm7.93-7.929a7.93 7.93 0 00-7.93 7.93h1.5a6.43 6.43 0 016.43-6.43v-1.5zm7.68 5.947a7.932 7.932 0 00-7.68-5.947v1.5a6.433 6.433 0 016.227 4.821l1.453-.374zm-.727.937h2.918v-1.5H18.8v1.5zm2.918 0a3.737 3.737 0 013.738 3.737h1.5a5.237 5.237 0 00-5.238-5.237v1.5zm3.738 3.737a3.737 3.737 0 01-3.738 3.738v1.5a5.237 5.237 0 005.238-5.238h-1.5zm-3.738 3.738h-9.804v1.5h9.804v-1.5z" fill="#fff"/><path d="M6 20.5h6.667M8.666 23h15.378c1.08 0 1.956.895 1.956 2s-.876 2-1.956 2-1.955-.895-1.955-2" stroke="#fff" stroke-width="1.5" stroke-linecap="round"/><path d="M6 25.5h12.044c1.08 0 1.956.895 1.956 2s-.875 2-1.956 2c-1.08 0-1.955-.895-1.955-2" stroke="#fff" stroke-width="1.5" stroke-linecap="round"/></svg>
